X:1
T:Cindy
M:4/4
L:1/4
K:G
 d| e d d B| A G2 d| e d d B| d3| z| e d d B| B A G2| B G G E| G z B/2A/2|\
 G| E2 G G| A G B/2A/2 G| D4-| D z B/2A/2| G| E2 G G| A G2 A| B B B A|\
 G2 z||
